X: 1
T: Humors of Ennistymon
M: 6/8
L: 1/8
R: jig
%Z: Modified by Megan Ward
K: Gmaj
A| ~B3 GBd | ~c3 ABc | ~B3 GBd | cAG FGA |
~B3 GBd | cBc ABc | ded cAF | AGF G3 :|
|: ~f3 fed | cAG FGA | dgg gfg | afd d2 e |
~f3 fed | cAG FGA | ~B3 cAF | AGF G3 :|
gdB gdB | ecA ecA | ~B3 GBd | cAG FGA |
gdB gdB | ecA ecA | ~B3 GBd | cAF GBd |
gdB gdB | ecA ecA | ~B3 GBd | cAG FGA |
~B3 GBd | cBc ABc | ded cAF | AGF G2  ||
